X:231
T: Der geistliche Ackermann
N: A0588
O: Europa, Mitteleuropa, Deutschland
N: Beuttner 1602 II No. 39.
R: Romanze, Ballade, Lied, religioeses Lied
M: 4/2
L: 1/2
K: G
G | GA_Bc | _BAG2z
G | _BBcd2A | _Bcd2z
d | =fdfddc | _B2A2z
=F | _B2cA2G | _B2cd2
c | _BAGABB | A2G3

